src/svg/area/area-programa.svg

<?xml version="1.0" encoding="UTF-8" standalone="no"?>
<!-- Generado por Andres Lacquaniti  -->

<svg
   xmlns:dc="http://purl.org/dc/elements/1.1/"
   xmlns:cc="http://creativecommons.org/ns#"
   xmlns:rdf="http://www.w3.org/1999/02/22-rdf-syntax-ns#"
   xmlns:svg="http://www.w3.org/2000/svg"
   xmlns="http://www.w3.org/2000/svg"
   xmlns:sodipodi="http://sodipodi.sourceforge.net/DTD/sodipodi-0.dtd"
   xmlns:inkscape="http://www.inkscape.org/namespaces/inkscape"
   version="1.1"
   id="Layer_1"
   x="0px"
   y="0px"
   width="15px"
   height="15px"
   viewBox="0 0 15 15"
   style="enable-background:new 0 0 15 15;"
   xml:space="preserve"
   sodipodi:docname="area-programa.svg"
   inkscape:version="0.92.0 r15299"><metadata
     id="metadata9"><rdf:RDF><cc:Work
         rdf:about=""><dc:format>image/svg+xml</dc:format><dc:type
           rdf:resource="http://purl.org/dc/dcmitype/StillImage" /><dc:title></dc:title></cc:Work></rdf:RDF></metadata><defs
     id="defs7" /><sodipodi:namedview
     pagecolor="#ffffff"
     bordercolor="#666666"
     borderopacity="1"
     objecttolerance="10"
     gridtolerance="10"
     guidetolerance="10"
     inkscape:pageopacity="0"
     inkscape:pageshadow="2"
     inkscape:window-width="1920"
     inkscape:window-height="996"
     id="namedview5"
     showgrid="false"
     inkscape:zoom="22.250293"
     inkscape:cx="-0.47773067"
     inkscape:cy="12.131151"
     inkscape:window-x="-8"
     inkscape:window-y="-8"
     inkscape:window-maximized="1"
     inkscape:current-layer="Layer_1" /><path
     style="fill:#000000;fill-opacity:1;fill-rule:nonzero;stroke:none;stroke-width:0.42638496"
     d="M 4.6542969 1.4707031 C 4.0731342 1.4707031 3.6015625 1.9418484 3.6015625 2.5234375 C 3.6015625 3.1041738 4.0731342 3.5742188 4.6542969 3.5742188 C 5.2354596 3.5742188 5.7070314 3.1041738 5.7070312 2.5234375 C 5.7070312 1.9418484 5.2354596 1.4707031 4.6542969 1.4707031 z M 10.865234 1.5136719 C 10.283645 1.5136719 9.8125 1.9848172 9.8125 2.5664062 C 9.8125 3.1471427 10.283645 3.6171875 10.865234 3.6171875 C 11.44597 3.6171875 11.917969 3.1471428 11.917969 2.5664062 C 11.917969 1.9848174 11.44597 1.5136719 10.865234 1.5136719 z M 7.1054688 1.5878906 C 6.9553813 4.1099577 8.4645622 6.0214891 10.289062 7.4140625 C 9.6584402 8.4587056 8.9976594 9.5946478 8.3222656 10.613281 C 7.6575314 7.7061886 5.7130459 4.8264971 2.8886719 3.4160156 C 1.9796191 4.9309614 1.0495542 6.4030368 0.23046875 7.9550781 C 0.13453213 8.1379972 0.18868365 8.5935443 0.41210938 8.7636719 C 0.75321734 9.0237667 1.1723157 8.9696983 1.3300781 8.7441406 C 2.0591964 7.6999238 2.6446023 6.669038 3.3144531 5.6269531 C 4.0333382 6.0422521 4.563657 6.6450562 5.015625 7.328125 C 3.9662916 9.2894958 2.790324 11.313869 1.6621094 13.230469 C 2.3255644 13.242409 2.994596 13.238569 3.4316406 13.230469 C 4.2451831 11.800374 5.1063931 10.282854 5.9570312 8.8105469 C 6.6089738 10.124665 7.0108935 11.755603 7.0253906 13.230469 C 7.5677523 13.235569 8.1964556 13.208719 8.6113281 13.230469 C 8.5738061 13.228369 11.026204 8.8285077 11.640625 8.0507812 C 12.452462 8.5027495 12.942825 9.4234178 13.070312 10.308594 C 13.231489 11.424443 12.522664 12.347426 11.958984 13.230469 C 12.11632 13.230469 13.743329 13.218529 13.734375 13.230469 C 14.968333 11.582491 15.288255 8.3492459 12.470703 6.6582031 C 13.233932 5.3240445 13.884988 4.2172456 14.660156 2.7773438 C 15.217441 1.7425071 13.975048 1.1260623 13.40625 2.0449219 C 12.577358 3.3841971 11.969517 4.5426711 11.140625 5.9667969 C 9.6491302 5.0334402 8.7254759 3.3335107 8.7011719 1.5878906 L 7.1054688 1.5878906 z "
     id="path3445" /></svg>

<svg width="15px" height="15px" enable-background="new 0 0 15 15" version="1.1" viewBox="0 0 15 15" xmlns="http://www.w3.org/2000/svg">
 <path d="m4.6543 1.4707c-0.58116 0-1.0527 0.47115-1.0527 1.0527 0 0.58074 0.47157 1.0508 1.0527 1.0508s1.0527-0.47004 1.0527-1.0508c0-0.58159-0.47157-1.0527-1.0527-1.0527zm6.2109 0.042969c-0.58159 0-1.0527 0.47115-1.0527 1.0527 0 0.58074 0.47114 1.0508 1.0527 1.0508 0.58074 0 1.0527-0.47004 1.0527-1.0508 0-0.58159-0.472-1.0527-1.0527-1.0527zm-3.7598 0.074219c-0.15009 2.5221 1.3591 4.4336 3.1836 5.8262-0.63062 1.0446-1.2914 2.1806-1.9668 3.1992-0.66473-2.9071-2.6092-5.7868-5.4336-7.1973-0.90905 1.5149-1.8391 2.987-2.6582 4.5391-0.095937 0.18292-0.041785 0.63847 0.18164 0.80859 0.34111 0.26009 0.76021 0.20603 0.91797-0.019531 0.72912-1.0442 1.3145-2.0751 1.9844-3.1172 0.71889 0.4153 1.2492 1.0181 1.7012 1.7012-1.0493 1.9614-2.2253 3.9857-3.3535 5.9023 0.66346 0.01194 1.3325 0.0081 1.7695 0 0.81354-1.4301 1.6748-2.9476 2.5254-4.4199 0.65194 1.3141 1.0539 2.9451 1.0684 4.4199 0.54236 0.0051 1.1711-0.02175 1.5859 0-0.037522-0.0021 2.4149-4.402 3.0293-5.1797 0.81184 0.45197 1.3022 1.3726 1.4297 2.2578 0.16118 1.1158-0.54765 2.0388-1.1113 2.9219 0.15734 0 1.7843-0.01194 1.7754 0 1.234-1.648 1.5539-4.8812-1.2637-6.5723 0.76323-1.3342 1.4143-2.441 2.1895-3.8809 0.55728-1.0348-0.68511-1.6513-1.2539-0.73242-0.82889 1.3393-1.4367 2.4977-2.2656 3.9219-1.4915-0.93336-2.4151-2.6333-2.4395-4.3789h-1.5957z"/>
</svg>
